dist/svgs/core-ui-icons/brand/cib-webpack.svg

<svg xmlns="http://www.w3.org/2000/svg" viewBox="0 0 32 32"><path d="M28.021 24.161l-11.552 6.505v-5.068l7.198-3.943zm.792-.713V9.839l-4.229 2.432v8.745zm-24.912.713l11.552 6.505v-5.068l-7.198-3.943zm-.792-.713V9.839l4.229 2.432v8.745zm.495-14.49l11.849-6.672v4.901l-7.646 4.188zm24.714 0L16.469 2.286v4.901l7.646 4.188zm-12.865 15.49l-7.099-3.891v-7.703l7.099 4.083zm1.016 0l7.099-3.891v-7.703l-7.099 4.083zM8.833 11.964l7.13-3.901 7.13 3.901-7.13 4.099z"/></svg>

<svg xmlns="http://www.w3.org/2000/svg" width="32" height="32" viewBox="0 0 32 32">
  <path d="M28.021 24.161l-11.552 6.505v-5.068l7.198-3.943zM28.813 23.448v-13.609l-4.229 2.432v8.745zM3.901 24.161l11.552 6.505v-5.068l-7.198-3.943zM3.109 23.448v-13.609l4.229 2.432v8.745zM3.604 8.958l11.849-6.672v4.901l-7.646 4.188zM28.318 8.958l-11.849-6.672v4.901l7.646 4.188zM15.453 24.448l-7.099-3.891v-7.703l7.099 4.083zM16.469 24.448l7.099-3.891v-7.703l-7.099 4.083zM8.833 11.964l7.13-3.901 7.13 3.901-7.13 4.099z"/>
</svg>
